assets/LinkedIn-8790d335.svg

<svg width="30" height="30" viewBox="0 0 30 30" fill="none" xmlns="http://www.w3.org/2000/svg">
<path d="M25.5589 25.565H21.1164V18.6038C21.1164 16.9438 21.0827 14.8075 18.8014 14.8075C16.4852 14.8075 16.1314 16.6138 16.1314 18.4813V25.565H11.6889V11.25H15.9564V13.2013H16.0139C16.6102 12.0763 18.0602 10.8888 20.2264 10.8888C24.7277 10.8888 25.5602 13.8513 25.5602 17.7075L25.5589 25.565ZM6.67143 9.29125C5.24143 9.29125 4.09268 8.13375 4.09268 6.71C4.09268 5.2875 5.24268 4.13125 6.67143 4.13125C8.09643 4.13125 9.25143 5.2875 9.25143 6.71C9.25143 8.13375 8.09518 9.29125 6.67143 9.29125ZM8.89893 25.565H4.44393V11.25H8.89893V25.565ZM27.7814 0H2.21393C0.990183 0 0.000183105 0.9675 0.000183105 2.16125V27.8388C0.000183105 29.0338 0.990183 30 2.21393 30H27.7777C29.0002 30 30.0002 29.0338 30.0002 27.8388V2.16125C30.0002 0.9675 29.0002 0 27.7777 0H27.7814Z" fill="white"/>
</svg>

<svg xmlns="http://www.w3.org/2000/svg" width="30" height="30" fill="none" viewBox="0 0 30 30"><path fill="#fff" d="M25.559 25.565h-4.443v-6.961c0-1.66-.033-3.796-2.315-3.796-2.316 0-2.67 1.806-2.67 3.673v7.084H11.69V11.25h4.267v1.951h.058c.596-1.125 2.046-2.312 4.212-2.312 4.502 0 5.334 2.962 5.334 6.819l-.001 7.857ZM6.67 9.291A2.577 2.577 0 0 1 4.093 6.71a2.58 2.58 0 1 1 2.579 2.581ZM8.9 25.565H4.444V11.25h4.455v14.315ZM27.78 0H2.214C.99 0 0 .968 0 2.161V27.84C0 29.034.99 30 2.214 30h25.564C29 30 30 29.034 30 27.839V2.16C30 .967 29 0 27.778 0h.003Z"/></svg>
